X:1
T:Resurrection
%%score 1 2
L:1/8
M:4/4
K:D
V:1 treble nm="Soprano" snm="S."
V:2 bass nm="Bass" snm="B."
V:1
 F>G | A2 A2 A2 B>c | d4 z2 D2 | EFGA B2 AG | F4 z2 F2 | E2 A2 ^GABc | d2 z2 d3 e/f/ | %7
 e<c B<A d<B A<B | !fermata!A2 z2 E2 E>F | G2 z2 F2 F>G | A4 z2 G2 | F2 E<D d2 cB | %12
 A2 GF !fermata!E2 z e | c3 e A2 z G | F2 E<D f2 e<d | e<G d<c d4 |] %16
V:2
 D,2 | D,2 D,2 D,2 G,2 | D,4 z2 D,2 | A,,2 A,,2 G,,2 A,,2 | D,4 z2 D,2 | C,2 A,,2 E,2 E,2 | %6
 E,2 z2 G,4 | A,2 C,2 D,2 E,2 | !fermata!A,,2 z2 A,2 G,>F, | E,2 z2 B,2 A,>G, | F,4 z2 E,2 | %11
 D,2 D,2 D,2 E,2 | F,2 A,2 !fermata!B,2 z E, | A,3 G, F,2 z E, | D,2 D,2 C2 D,2 | A,2 A,,2 D,4 |] %16

